X:1
T:The Reason I Left Mullingar
M:3/4
L:1/4
K:C
 B| c3/2 B/2 A| B/2 A3/2 G| A3| G2 C/2C/2| _B B B| A G F| G3-| G2 G|\
 c B A| B A G| A3| G2 F| E E E| E F G| D3-| D2 B| c B A| B A G| A3|\
 G2 C| _B B B| A G F| G3-| G2 B| c3/2 B/2 A| B3/2 A/2 G| A G F| G2 F|\
 E E E| E F G| D3-| D2 c/2c/2| c B A| B A G| A2-B/2-A/2| G2 C| _B B B|\
 A G F| G3-| G2 c| c B A| B2 A/2G/2| A G F| G2 E3.99999962500005/11.9999985000002 E3.99999962500005/11.9999985000002 E3.99999962500005/11.9999985000002|\
 F G A| G E D| C3-| C2||
